docs/images/icons/whatsapp-logo.svg

<svg width="48" height="48" fill="none" xmlns="http://www.w3.org/2000/svg"><defs><clipPath id="a"><path fill="#fff" fill-opacity="0" d="M0 0h48v48H0z"/></clipPath></defs><path d="M0 0h48v48H0z"/><g clip-path="url(#a)"><path d="M24 5.25c-3.29 0-6.51.86-9.36 2.5a18.724 18.724 0 0 0-6.86 6.83 18.803 18.803 0 0 0-2.53 9.34c-.02 3.28.83 6.51 2.45 9.36l-1.68 5.91c-.11.39-.12.8-.02 1.19.1.38.31.74.59 1.02.28.29.64.49 1.03.59.38.1.79.09 1.18-.02l5.91-1.68c2.49 1.42 5.28 2.25 8.15 2.42 2.86.18 5.73-.31 8.38-1.42 2.65-1.11 5.01-2.81 6.89-4.98 1.89-2.16 3.25-4.73 3.99-7.51.74-2.78.82-5.68.26-8.5-.57-2.81-1.77-5.46-3.52-7.74a18.981 18.981 0 0 0-6.58-5.39A18.868 18.868 0 0 0 24 5.25Zm0 36c-3.1 0-6.14-.84-8.81-2.42a.938.938 0 0 0-.28-.1.8.8 0 0 0-.31.03l-6.21 1.77c-.13.04-.27.04-.4.01a.734.734 0 0 1-.34-.2.734.734 0 0 1-.2-.34.776.776 0 0 1 .01-.4l1.77-6.21c.03-.1.04-.2.03-.3a.905.905 0 0 0-.1-.29c-1.94-3.27-2.75-7.1-2.29-10.88.45-3.78 2.15-7.3 4.81-10.01 2.67-2.72 6.16-4.48 9.93-5 3.77-.53 7.61.21 10.92 2.09 3.31 1.88 5.9 4.81 7.37 8.32 1.47 3.51 1.75 7.41.77 11.09-.97 3.68-3.14 6.93-6.15 9.25A17.286 17.286 0 0 1 24 41.25Zm9.47-13.78-3.84-2.19c-.35-.2-.74-.3-1.14-.3-.4.01-.79.12-1.13.32l-2.59 1.56a8.316 8.316 0 0 1-3.64-3.64l1.56-2.59c.2-.34.31-.73.32-1.13 0-.4-.1-.79-.3-1.14l-2.19-3.84c-.18-.31-.44-.57-.75-.75-.31-.18-.66-.27-1.02-.27-1.59 0-3.11.62-4.24 1.74a6.023 6.023 0 0 0-1.76 4.23c-.01 2.07.4 4.12 1.19 6.04.79 1.91 1.95 3.65 3.41 5.11 1.46 1.47 3.2 2.63 5.11 3.42 1.92.8 3.97 1.21 6.04 1.21h.02c1.58-.01 3.11-.65 4.23-1.77a6.014 6.014 0 0 0 1.75-4.23 2.068 2.068 0 0 0-1.03-1.78Zm-4.95 6.28h-.02c-1.88 0-3.73-.37-5.46-1.09-1.73-.72-3.3-1.77-4.63-3.1a14.17 14.17 0 0 1-4.16-10.09c0-1.19.48-2.32 1.32-3.16.84-.84 1.99-1.32 3.18-1.31.09 0 .18.02.27.07.08.05.15.12.2.2l2.19 3.83c.06.12.1.25.1.38 0 .14-.04.27-.11.38l-1.76 2.94c-.06.1-.1.22-.11.34 0 .12.02.24.07.35a9.75 9.75 0 0 0 4.9 4.9c.11.05.23.07.35.07.12-.01.24-.05.34-.11l2.94-1.76c.11-.07.24-.11.38-.11.13 0 .26.04.38.1l3.83 2.19a.566.566 0 0 1 .28.48c0 1.19-.48 2.33-1.32 3.17a4.5 4.5 0 0 1-3.16 1.33Z" fill="#FFF"/></g></svg>

<svg width="48.000000" height="48.000000" viewBox="0 0 48 48" fill="none" xmlns="http://www.w3.org/2000/svg" xmlns:xlink="http://www.w3.org/1999/xlink">
	<desc>
			Created with Pixso.
	</desc>
	<defs>
		<clipPath id="clip339_453">
			<rect id="whatsapp-logo-thin-svgrepo-com 1" width="48.000000" height="48.000000" fill="white" fill-opacity="0"/>
		</clipPath>
	</defs>
	<rect id="whatsapp-logo-thin-svgrepo-com 1" width="48.000000" height="48.000000" fill="#FFFFFF" fill-opacity="0"/>
	<g clip-path="url(#clip339_453)">
		<path id="Vector" d="M24 5.25C20.71 5.25 17.49 6.11 14.64 7.75C11.8 9.38 9.43 11.74 7.78 14.58C6.14 17.42 5.26 20.64 5.25 23.92C5.23 27.2 6.08 30.43 7.7 33.28L6.02 39.19C5.91 39.58 5.9 39.99 6 40.38C6.1 40.76 6.31 41.12 6.59 41.4C6.87 41.69 7.23 41.89 7.62 41.99C8 42.09 8.41 42.08 8.8 41.97L14.71 40.29C17.2 41.71 19.99 42.54 22.86 42.71C25.72 42.89 28.59 42.4 31.24 41.29C33.89 40.18 36.25 38.48 38.13 36.31C40.02 34.15 41.38 31.58 42.12 28.8C42.86 26.02 42.94 23.12 42.38 20.3C41.81 17.49 40.61 14.84 38.86 12.56C37.1 10.29 34.85 8.44 32.28 7.17C29.7 5.91 26.87 5.25 24 5.25ZM24 41.25C20.9 41.25 17.86 40.41 15.19 38.83C15.1 38.78 15.01 38.75 14.91 38.73C14.8 38.72 14.7 38.73 14.6 38.76L8.39 40.53C8.26 40.57 8.12 40.57 7.99 40.54C7.86 40.5 7.74 40.44 7.65 40.34C7.55 40.25 7.49 40.13 7.45 40C7.42 39.87 7.42 39.73 7.46 39.6L9.23 33.39C9.26 33.29 9.27 33.19 9.26 33.09C9.24 32.98 9.21 32.89 9.16 32.8C7.22 29.53 6.41 25.7 6.87 21.92C7.32 18.14 9.02 14.62 11.68 11.91C14.35 9.19 17.84 7.43 21.61 6.91C25.38 6.38 29.22 7.12 32.53 9C35.84 10.88 38.43 13.81 39.9 17.32C41.37 20.83 41.65 24.73 40.67 28.41C39.7 32.09 37.53 35.34 34.52 37.66C31.5 39.99 27.8 41.24 24 41.25ZM33.47 27.47L29.63 25.28C29.28 25.08 28.89 24.98 28.49 24.98C28.09 24.99 27.7 25.1 27.36 25.3L24.77 26.86C23.2 26.06 21.93 24.79 21.13 23.22L22.69 20.63C22.89 20.29 23 19.9 23.01 19.5C23.01 19.1 22.91 18.71 22.71 18.36L20.52 14.52C20.34 14.21 20.08 13.95 19.77 13.77C19.46 13.59 19.11 13.5 18.75 13.5C17.16 13.5 15.64 14.12 14.51 15.24C13.39 16.37 12.75 17.89 12.75 19.47C12.74 21.54 13.15 23.59 13.94 25.51C14.73 27.42 15.89 29.16 17.35 30.62C18.81 32.09 20.55 33.25 22.46 34.04C24.38 34.84 26.43 35.25 28.5 35.25L28.52 35.25C30.1 35.24 31.63 34.6 32.75 33.48C33.87 32.35 34.5 30.83 34.5 29.25C34.5 28.89 34.4 28.53 34.22 28.22C34.04 27.91 33.78 27.65 33.47 27.47ZM28.52 33.75L28.5 33.75C26.62 33.75 24.77 33.38 23.04 32.66C21.31 31.94 19.74 30.89 18.41 29.56C17.09 28.24 16.04 26.67 15.32 24.93C14.61 23.2 14.24 21.35 14.25 19.47C14.25 18.28 14.73 17.15 15.57 16.31C16.41 15.47 17.56 14.99 18.75 15C18.84 15 18.93 15.02 19.02 15.07C19.1 15.12 19.17 15.19 19.22 15.27L21.41 19.1C21.47 19.22 21.51 19.35 21.51 19.48C21.51 19.62 21.47 19.75 21.4 19.86L19.64 22.8C19.58 22.9 19.54 23.02 19.53 23.14C19.53 23.26 19.55 23.38 19.6 23.49C20.58 25.67 22.32 27.41 24.5 28.39C24.61 28.44 24.73 28.46 24.85 28.46C24.97 28.45 25.09 28.41 25.19 28.35L28.13 26.59C28.24 26.52 28.37 26.48 28.51 26.48C28.64 26.48 28.77 26.52 28.89 26.58L32.72 28.77C32.81 28.82 32.87 28.89 32.92 28.97C32.97 29.06 33 29.15 33 29.25C33 30.44 32.52 31.58 31.68 32.42C30.85 33.26 29.71 33.74 28.52 33.75Z" fill="#FFFFFF" fill-opacity="1.000000" fill-rule="nonzero"/>
	</g>
</svg>
